X:11687
T:Nelson Hornpipe. BF13.060
M:4/4
L:1/8
Q:160
S:James Lishman,Dancing Master,Cumbria,early 19thC.,Browne Coll.
R:Hornpipe
O:England
A:Lakes
Z:vmp.Chris Partington.
K:G
Bc|dBec BAcA|GFAFG2Bc|dgfg edcB|BAcA GFED|!
dAec AGcA|GFAF Ggec|cBcA GFAF|G2G2G2::!
Bc|egfg edcB|edefg2gf|edcB AGFE|D2D2D2GF|!
EGAF GBdB|cBcB cege|dBec BAGF|G2G2G2:|]
